images/instagram.svg

<svg width="24" height="24" viewBox="0 0 24 24" fill="none" xmlns="http://www.w3.org/2000/svg">
<path fill-rule="evenodd" clip-rule="evenodd" d="M2.65396 5.27606C2 6.55953 2 8.23969 2 11.6V12.4C2 15.7603 2 17.4405 2.65396 18.7239C3.2292 19.8529 4.14708 20.7708 5.27606 21.346C6.55953 22 8.23969 22 11.6 22H12.4C15.7603 22 17.4405 22 18.7239 21.346C19.8529 20.7708 20.7708 19.8529 21.346 18.7239C22 17.4405 22 15.7603 22 12.4V11.6C22 8.23969 22 6.55953 21.346 5.27606C20.7708 4.14708 19.8529 3.2292 18.7239 2.65396C17.4405 2 15.7603 2 12.4 2H11.6C8.23969 2 6.55953 2 5.27606 2.65396C4.14708 3.2292 3.2292 4.14708 2.65396 5.27606ZM12.4 4H11.6C9.88684 4 8.72225 4.00156 7.82208 4.0751C6.94524 4.14674 6.49684 4.27659 6.18404 4.43597C5.43139 4.81947 4.81947 5.43139 4.43597 6.18404C4.27659 6.49684 4.14674 6.94524 4.0751 7.82208C4.00156 8.72225 4 9.88684 4 11.6V12.4C4 14.1132 4.00156 15.2777 4.0751 16.1779C4.14674 17.0548 4.27659 17.5032 4.43597 17.816C4.81947 18.5686 5.43139 19.1805 6.18404 19.564C6.49684 19.7234 6.94524 19.8533 7.82208 19.9249C8.72225 19.9984 9.88684 20 11.6 20H12.4C14.1132 20 15.2777 19.9984 16.1779 19.9249C17.0548 19.8533 17.5032 19.7234 17.816 19.564C18.5686 19.1805 19.1805 18.5686 19.564 17.816C19.7234 17.5032 19.8533 17.0548 19.9249 16.1779C19.9984 15.2777 20 14.1132 20 12.4V11.6C20 9.88684 19.9984 8.72225 19.9249 7.82208C19.8533 6.94524 19.7234 6.49684 19.564 6.18404C19.1805 5.43139 18.5686 4.81947 17.816 4.43597C17.5032 4.27659 17.0548 4.14674 16.1779 4.0751C15.2777 4.00156 14.1132 4 12.4 4ZM17 12C17 14.7614 14.7614 17 12 17C9.23858 17 7 14.7614 7 12C7 9.23858 9.23858 7 12 7C14.7614 7 17 9.23858 17 12ZM15 12C15 13.6569 13.6569 15 12 15C10.3431 15 9 13.6569 9 12C9 10.3431 10.3431 9 12 9C13.6569 9 15 10.3431 15 12ZM17 8C17.5523 8 18 7.55228 18 7C18 6.44772 17.5523 6 17 6C16.4477 6 16 6.44772 16 7C16 7.55228 16.4477 8 17 8Z" fill="white"/>
</svg>

<svg width="24" height="24" viewBox="0 0 24 24" fill="none" xmlns="http://www.w3.org/2000/svg"><path fill-rule="evenodd" clip-rule="evenodd" d="M2.654 5.276C2 6.56 2 8.24 2 11.6v.8c0 3.36 0 5.04.654 6.324a6 6 0 002.622 2.622C6.56 22 8.24 22 11.6 22h.8c3.36 0 5.04 0 6.324-.654a6 6 0 002.622-2.622C22 17.44 22 15.76 22 12.4v-.8c0-3.36 0-5.04-.654-6.324a6 6 0 00-2.622-2.622C17.44 2 15.76 2 12.4 2h-.8c-3.36 0-5.04 0-6.324.654a6 6 0 00-2.622 2.622zM12.4 4h-.8c-1.713 0-2.878.002-3.778.075-.877.072-1.325.202-1.638.361a4 4 0 00-1.748 1.748c-.16.313-.29.761-.36 1.638C4.001 8.722 4 9.887 4 11.6v.8c0 1.713.002 2.878.075 3.778.072.877.202 1.325.361 1.638a4 4 0 001.748 1.748c.313.16.761.29 1.638.36.9.074 2.065.076 3.778.076h.8c1.713 0 2.878-.002 3.778-.075.877-.072 1.325-.202 1.638-.361a4 4 0 001.748-1.748c.16-.313.29-.761.36-1.638.074-.9.076-2.065.076-3.778v-.8c0-1.713-.002-2.878-.075-3.778-.072-.877-.202-1.325-.361-1.638a4 4 0 00-1.748-1.748c-.313-.16-.761-.29-1.638-.36C15.278 4.001 14.113 4 12.4 4zm4.6 8a5 5 0 11-10 0 5 5 0 0110 0zm-2 0a3 3 0 11-6 0 3 3 0 016 0zm2-4a1 1 0 100-2 1 1 0 000 2z" fill="#fff"/></svg>
